FINK
CUT[VOEGLEIN IM HAIN]
REG[Europa, Mitteleuropa, Deutschland]
KEY[F0305  16  G 3/8]
MEL[  -5_1_2_  3__.
    1_3_4_  5__.
    6_2_3_  43454_
    5_1_2_  32343_
    5_4_3_  2_-7_-5_
    5_4_3_  2_-7_-5_
    4_4_4_  6_.54_
    5_2_3_  43454_
    6_4_2_  -7__.
    -5_1_2_  3__.
    1_3_4_  5__.
    5__.  ^_-5_3_  1__. //] >>
FCT[Jugend - Lied, Belehrung]
